picto/self-service-validation-blue.svg

<svg class="color-immutable" width="24" height="24" viewBox="0 0 24 24" fill="none" xmlns="http://www.w3.org/2000/svg"><path d="M0 22.5V1.5C0 0.675 0.675 0 1.5 0H22.5C23.325 0 24 0.675 24 1.5V22.5C24 23.325 23.325 24 22.5 24H1.5C0.675 24 0 23.325 0 22.5Z" fill="#F7B500"/><path d="M14.029 16.048C14.029 17.088 13.186 17.931 12.146 17.931C11.106 17.931 10.263 17.088 10.263 16.048C10.263 15.008 11.106 14.165 12.146 14.165C13.186 14.165 14.029 15.008 14.029 16.048Z" fill="black"/><path d="M12.147 8.92101C8.16499 8.92101 4.56199 11.279 2.96899 14.928C4.56199 18.577 8.16499 20.935 12.147 20.935C16.129 20.935 19.732 18.577 21.325 14.928C19.733 11.28 16.13 8.92101 12.147 8.92101ZM12.146 19.811V19.804C10.071 19.804 8.38899 18.122 8.38899 16.047C8.38899 13.972 10.071 12.29 12.146 12.29C14.221 12.29 15.903 13.972 15.903 16.047H17.025C17.025 13.353 14.84 11.168 12.146 11.168C9.45299 11.168 7.26799 13.352 7.26799 16.047C7.26799 17.096 7.59999 18.067 8.16399 18.864C6.48899 18.024 5.08799 16.664 4.21099 14.928C5.72299 11.934 8.79199 10.045 12.148 10.045C15.502 10.045 18.571 11.933 20.084 14.928C18.571 17.923 15.502 19.811 12.146 19.811Z" fill="black"/></svg>

<svg class="color-immutable" width="24" height="24" viewBox="0 0 24 24" fill="none" xmlns="http://www.w3.org/2000/svg"><g clip-path="url(#a)"><path d="M0 22.5v-21C0 .675.675 0 1.5 0h21c.825 0 1.5.675 1.5 1.5v21c0 .825-.675 1.5-1.5 1.5h-21C.675 24 0 23.325 0 22.5Z" fill="#F7B500"/><path d="M14.029 16.048a1.883 1.883 0 1 1-3.766 0 1.883 1.883 0 0 1 3.766 0Z" fill="#000"/><path d="M12.147 8.921a10.013 10.013 0 0 0-9.178 6.007 10.013 10.013 0 0 0 18.356 0 10.013 10.013 0 0 0-9.178-6.007Zm-.001 10.89v-.007a3.757 3.757 0 1 1 3.757-3.757h1.122a4.879 4.879 0 1 0-8.861 2.817 8.882 8.882 0 0 1-3.953-3.936 8.891 8.891 0 0 1 15.873 0 8.892 8.892 0 0 1-7.938 4.883Z" fill="#000"/></g><defs><clipPath id="a"><path fill="#fff" d="M0 0h24v24H0z"/></clipPath></defs></svg>
